src/components/00-materials/images-raw/Car Substitution.svg

<svg width="96" height="96" viewBox="0 0 96 96" fill="none" xmlns="http://www.w3.org/2000/svg">
<path d="M51.39 57.92V52.49C51.3897 51.8353 51.1607 51.2011 50.7425 50.6972C50.3244 50.1933 49.7435 49.8512 49.1 49.73L41.24 47.73L36.15 43.11C33.15 40.38 31.15 38.79 28.49 38.79H16.7C15.17 38.79 13.28 41.17 12.29 42.35L7.64 48.25C7.46609 48.4458 7.25544 48.6055 7.02 48.72C6.76288 48.8626 6.54851 49.0712 6.39907 49.3244C6.24963 49.5776 6.17055 49.8661 6.17 50.16V57.28M17.92 61.49H36.12H17.92ZM16.94 57.92H37.09H16.94Z" stroke="#00008F" stroke-width="2" stroke-linecap="round" stroke-linejoin="round"/>
<path d="M13.22 66.19C15.8157 66.19 17.92 64.0858 17.92 61.49C17.92 58.8943 15.8157 56.79 13.22 56.79C10.6243 56.79 8.51999 58.8943 8.51999 61.49C8.51999 64.0858 10.6243 66.19 13.22 66.19Z" stroke="#00008F" stroke-width="2" stroke-linecap="round" stroke-linejoin="round"/>
<path d="M13.22 62.49C13.7723 62.49 14.22 62.0423 14.22 61.49C14.22 60.9377 13.7723 60.49 13.22 60.49C12.6677 60.49 12.22 60.9377 12.22 61.49C12.22 62.0423 12.6677 62.49 13.22 62.49Z" stroke="#00008F" stroke-width="2" stroke-linecap="round" stroke-linejoin="round"/>
<path d="M40.82 66.19C43.4157 66.19 45.52 64.0858 45.52 61.49C45.52 58.8943 43.4157 56.79 40.82 56.79C38.2243 56.79 36.12 58.8943 36.12 61.49C36.12 64.0858 38.2243 66.19 40.82 66.19Z" stroke="#00008F" stroke-width="2" stroke-linecap="round" stroke-linejoin="round"/>
<path d="M40.82 62.49C41.3723 62.49 41.82 62.0423 41.82 61.49C41.82 60.9377 41.3723 60.49 40.82 60.49C40.2677 60.49 39.82 60.9377 39.82 61.49C39.82 62.0423 40.2677 62.49 40.82 62.49Z" stroke="#00008F" stroke-width="2" stroke-linecap="round" stroke-linejoin="round"/>
<path d="M45.51 61.49H51.09C51.2847 61.49 51.4775 61.4514 51.6572 61.3762C51.8369 61.3011 51.9998 61.1911 52.1366 61.0524C52.2733 60.9138 52.3812 60.7494 52.4539 60.5687C52.5266 60.3881 52.5626 60.1947 52.56 60C52.56 59.19 51.9 58 51.09 58H44.48M8.52 61.49H6.52C6.32109 61.4968 6.12288 61.4631 5.93737 61.3911C5.75187 61.319 5.58294 61.21 5.44081 61.0706C5.29869 60.9313 5.18633 60.7646 5.11056 60.5806C5.03479 60.3965 4.99717 60.199 5 60V59.71C4.99801 59.2957 5.14561 58.8947 5.41567 58.5805C5.68573 58.2664 6.06011 58.0602 6.47 58H9.55M51.39 53.86C50.2698 53.8174 49.2124 53.3318 48.45 52.51C47.6617 51.5115 47.065 50.3757 46.69 49.16M13.22 48.28L17.12 44C17.3632 43.7291 17.6608 43.5125 17.9933 43.3643C18.3259 43.2161 18.6859 43.1397 19.05 43.14H26.71C28.3886 43.1368 30.0079 43.7609 31.25 44.89L35 48.28H13.22ZM13.22 48.28H35.04M23.61 57.92V43.09M28.49 52.51H27.31M6.17 52.68C9.46 52.68 10.26 48.57 7.27 48.57M52.54 59.2H69.52M52.22 55.36H70.78M89.47 55.22V47.44C89.4704 46.5826 89.1706 45.7521 88.6226 45.0927C88.0746 44.4333 87.313 43.9866 86.47 43.83L76.22 40.18L69.56 34.18C65.69 30.61 62.96 29.84 59.56 29.84H44.15C40.27 29.81 34 40.7 34 40.7" stroke="#00008F" stroke-width="2" stroke-linecap="round" stroke-linejoin="round"/>
<path d="M75.66 65.3401C79.051 65.3401 81.8 62.5911 81.8 59.2001C81.8 55.809 79.051 53.0601 75.66 53.0601C72.269 53.0601 69.52 55.809 69.52 59.2001C69.52 62.5911 72.269 65.3401 75.66 65.3401Z" stroke="#00008F" stroke-width="2" stroke-linecap="round" stroke-linejoin="round"/>
<path d="M75.66 61.5C76.9303 61.5 77.96 60.4703 77.96 59.2C77.96 57.9298 76.9303 56.9 75.66 56.9C74.3897 56.9 73.36 57.9298 73.36 59.2C73.36 60.4703 74.3897 61.5 75.66 61.5Z" stroke="#00008F" stroke-width="2" stroke-linecap="round" stroke-linejoin="round"/>
<path d="M81.79 59.2H89.08C89.5892 59.2 90.0776 58.9978 90.4376 58.6377C90.7977 58.2776 91 57.7893 91 57.28C91 56.7708 90.7977 56.2825 90.4376 55.9224C90.0776 55.5623 89.5892 55.36 89.08 55.36H80.45M89.47 49.22C88.0098 49.164 86.6303 48.5353 85.63 47.47C84.5989 46.1649 83.819 44.6798 83.33 43.09M54.72 55.36V34.65M59.55 46.16H58.01M40.27 42.32L44.37 35.92C44.7285 35.5192 45.1678 35.1988 45.659 34.9799C46.1502 34.761 46.6822 34.6486 47.22 34.65H58.53C61.0105 34.6513 63.402 35.5744 65.24 37.24L70.82 42.32H40.27Z" stroke="#00008F" stroke-width="2" stroke-linecap="round" stroke-linejoin="round"/>
</svg>

<svg width="96" height="96" viewBox="0 0 96 96" fill="none" xmlns="http://www.w3.org/2000/svg"><path d="M51.39 57.92v-5.43a2.81 2.81 0 00-2.29-2.76l-7.86-2-5.09-4.62c-3-2.73-5-4.32-7.66-4.32H16.7c-1.53 0-3.42 2.38-4.41 3.56l-4.65 5.9a1.998 1.998 0 01-.62.47 1.65 1.65 0 00-.85 1.44v7.12m11.75 4.21h18.2-18.2zm-.98-3.57h20.15-20.15z" stroke="#00008F" stroke-width="2" stroke-linecap="round" stroke-linejoin="round"/><path d="M13.22 66.19a4.7 4.7 0 100-9.4 4.7 4.7 0 000 9.4z" stroke="#00008F" stroke-width="2" stroke-linecap="round" stroke-linejoin="round"/><path d="M13.22 62.49a1 1 0 100-2 1 1 0 000 2zM40.82 66.19a4.7 4.7 0 100-9.4 4.7 4.7 0 000 9.4z" stroke="#00008F" stroke-width="2" stroke-linecap="round" stroke-linejoin="round"/><path d="M40.82 62.49a1 1 0 100-2 1 1 0 000 2zM45.51 61.49h5.58A1.47 1.47 0 0052.56 60c0-.81-.66-2-1.47-2h-6.61M8.52 61.49h-2A1.471 1.471 0 015 60v-.29A1.72 1.72 0 016.47 58h3.08m41.84-4.14a4.23 4.23 0 01-2.94-1.35 10.311 10.311 0 01-1.76-3.35m-33.47-.88l3.9-4.28a2.591 2.591 0 011.93-.86h7.66a6.73 6.73 0 014.54 1.75L35 48.28H13.22zm0 0h21.82m-11.43 9.64V43.09m4.88 9.42h-1.18m-21.14.17c3.29 0 4.09-4.11 1.1-4.11M52.54 59.2h16.98m-17.3-3.84h18.56m18.69-.14v-7.78a3.67 3.67 0 00-3-3.61l-10.25-3.65-6.66-6c-3.87-3.57-6.6-4.34-10-4.34H44.15C40.27 29.81 34 40.7 34 40.7M75.66 65.34a6.14 6.14 0 100-12.28 6.14 6.14 0 000 12.28z" stroke="#00008F" stroke-width="2" stroke-linecap="round" stroke-linejoin="round"/><path d="M75.66 61.5a2.3 2.3 0 100-4.6 2.3 2.3 0 000 4.6zM81.79 59.2h7.29a1.92 1.92 0 100-3.84h-8.63m9.02-6.14a5.56 5.56 0 01-3.84-1.75 13.438 13.438 0 01-2.3-4.38M54.72 55.36V34.65m4.83 11.51h-1.54m-17.74-3.84l4.1-6.4a3.81 3.81 0 012.85-1.27h11.31a10 10 0 016.71 2.59l5.58 5.08H40.27z" stroke="#00008F" stroke-width="2" stroke-linecap="round" stroke-linejoin="round"/></svg>
